icons/feed-rocket-16.svg

<svg width="16" height="16" viewBox="0 0 16 16" fill="none" xmlns="http://www.w3.org/2000/svg">
<path fill-rule="evenodd" clip-rule="evenodd" d="M8 16C12.4183 16 16 12.4183 16 8C16 3.58172 12.4183 0 8 0C3.58172 0 0 3.58172 0 8C0 12.4183 3.58172 16 8 16ZM11.031 3.99976C9.86957 3.9998 8.75568 4.46123 7.93443 5.28254L7.7047 5.51177C7.54754 5.66893 7.39639 5.83259 7.25224 6.00176H5.64864C5.49908 6.0018 5.35203 6.04014 5.22148 6.11312C5.09094 6.1861 4.98126 6.29129 4.90289 6.41868L4.04704 7.80707C4.01699 7.85586 3.99852 7.91089 3.99304 7.96794C3.98755 8.02498 3.9952 8.08252 4.0154 8.13615C4.03559 8.18978 4.0678 8.23807 4.10955 8.27733C4.15129 8.31659 4.20148 8.34576 4.25625 8.36262L5.8088 8.8401L7.15915 10.1904L7.63663 11.743C7.65349 11.7978 7.68266 11.848 7.72192 11.8897C7.76118 11.9314 7.80947 11.9637 7.8631 11.9838C7.91673 12.0041 7.97427 12.0117 8.03131 12.0062C8.08835 12.0007 8.14338 11.9822 8.19218 11.9522L9.58058 11.0979C9.70795 11.0195 9.81316 10.9098 9.88613 10.7793C9.95911 10.6487 9.99744 10.5017 9.99749 10.3521V8.74701C10.1667 8.60286 10.3303 8.45171 10.4875 8.29455L10.7167 8.06482C11.5381 7.24377 11.9997 6.13009 12 4.96873V4.87563C12 4.64333 11.9077 4.42055 11.7434 4.25629C11.5792 4.09204 11.3564 3.99976 11.1241 3.99976H11.031ZM5.92374 11.1443C5.87954 11.2435 5.81581 11.3327 5.73637 11.4068C5.34174 11.8014 4.47809 11.9701 4.11636 12.0256C4.09686 12.0289 4.07686 12.0275 4.05802 12.0215C4.03919 12.0155 4.02207 12.0051 4.00809 11.991C3.99411 11.9771 3.98367 11.9599 3.97765 11.9411C3.97164 11.9223 3.97021 11.9023 3.97349 11.8828C4.02902 11.521 4.19776 10.6574 4.59346 10.2639C4.66749 10.1844 4.75677 10.1207 4.85596 10.0765C4.95516 10.0323 5.06224 10.0085 5.17082 10.0066C5.2794 10.0047 5.38725 10.0247 5.48795 10.0654C5.58863 10.106 5.6801 10.1665 5.75689 10.2433C5.83368 10.3201 5.89422 10.4116 5.93489 10.5123C5.97556 10.613 5.99553 10.7208 5.99362 10.8294C5.9917 10.938 5.96794 11.0451 5.92374 11.1443Z" fill="#24292F"/>
</svg>

<svg xmlns="http://www.w3.org/2000/svg" width="16" height="16" viewBox="0 0 16 16"><path fill-rule="evenodd" d="M8 16A8 8 0 108 0a8 8 0 000 16zm3.031-12a4.38 4.38 0 00-3.097 1.283l-.23.229c-.156.157-.308.32-.452.49H5.65a.876.876 0 00-.746.417l-.856 1.388a.375.375 0 00.21.556l1.552.477 1.35 1.35.478 1.553a.375.375 0 00.555.21l1.389-.855a.876.876 0 00.416-.746V8.747c.17-.144.333-.295.49-.452l.23-.23A4.38 4.38 0 0012 4.969v-.093A.876.876 0 0011.124 4h-.093zm-5.107 7.144a.81.81 0 01-.188.263c-.394.394-1.258.563-1.62.619a.124.124 0 01-.143-.143c.056-.362.225-1.226.62-1.62a.808.808 0 011.33.881z"/></svg>
